!! 00000] TT[WS
!!!OTL: Fandui xiyu shijian
!!!ARE: Asia, China, Shanxi Zuoquan
!! Ethnic Group: Han
!! WII, 211 (1)
!!!SCT: J0715
!!!YEM: Copyright 1995, estate of Helmut Schaffrath.
**kern
*ICvox
*Ivox
*M2/4
*k[f#c#g#]
*A:
{8a
8a
8c#
16B
16c#
=1
8e
8e
4e
=2
8b
8ee
8dd
16cc#
16b
=3
2a}
=4
{8b
8ee
8dd
16cc#
16ee
=5
8b
8b
8b
8ee
=6
8a
16g#
16f#
4e}
=7
{8cc#
16b
16cc#
8e
8d
=8
2e}
==
!!!AGN: Xiaodiao. Sushuo
!!!ONB: ESAC (Essen Associative Code) Database: CHINA
!!!AMT: simple duple
!!!AIN: vox
!!!EED: Helmut Schaffrath
!!!EEV: 1.0
*-
